icons/midnadark/actions/24/colorneg.svg

<?xml version="1.0" encoding="UTF-8" standalone="no"?>
<!-- Created with Inkscape (http://www.inkscape.org/) -->

<svg
   xmlns:dc="http://purl.org/dc/elements/1.1/"
   xmlns:cc="http://creativecommons.org/ns#"
   xmlns:rdf="http://www.w3.org/1999/02/22-rdf-syntax-ns#"
   xmlns:svg="http://www.w3.org/2000/svg"
   xmlns="http://www.w3.org/2000/svg"
   xmlns:sodipodi="http://sodipodi.sourceforge.net/DTD/sodipodi-0.dtd"
   xmlns:inkscape="http://www.inkscape.org/namespaces/inkscape"
   width="22"
   height="22"
   id="svg4355"
   version="1.1"
   inkscape:version="0.91 r13725"
   sodipodi:docname="colorneg.svg">
  <defs
     id="defs4357">
    <clipPath
       clipPathUnits="userSpaceOnUse"
       id="clipPath4160">
      <rect
         style="opacity:1;fill:#f2f2f2;fill-opacity:1;stroke:none;stroke-opacity:1"
         id="rect4162"
         width="1"
         height="1"
         x="7"
         y="1023.3622" />
    </clipPath>
  </defs>
  <sodipodi:namedview
     id="base"
     pagecolor="#ffffff"
     bordercolor="#666666"
     borderopacity="1.0"
     inkscape:pageopacity="0.0"
     inkscape:pageshadow="2"
     inkscape:zoom="16"
     inkscape:cx="9.6851232"
     inkscape:cy="9.497379"
     inkscape:document-units="px"
     inkscape:current-layer="layer1"
     showgrid="true"
     width="0px"
     height="0px"
     fit-margin-top="0"
     fit-margin-left="0"
     fit-margin-right="0"
     fit-margin-bottom="0"
     inkscape:window-width="1366"
     inkscape:window-height="709"
     inkscape:window-x="-4"
     inkscape:window-y="0"
     inkscape:window-maximized="1"
     inkscape:showpageshadow="false"
     inkscape:snap-bbox="true"
     inkscape:snap-global="true"
     inkscape:object-nodes="true">
    <inkscape:grid
       type="xygrid"
       id="grid4114" />
    <sodipodi:guide
       position="2,13"
       orientation="18,0"
       id="guide4120" />
    <sodipodi:guide
       position="2.0000011,1.9999962"
       orientation="0,18"
       id="guide4122" />
    <sodipodi:guide
       position="20.000001,1.9999962"
       orientation="-18,0"
       id="guide4124" />
    <sodipodi:guide
       position="20.000001,19.999996"
       orientation="0,-18"
       id="guide4126" />
    <sodipodi:guide
       position="3,6"
       orientation="16,0"
       id="guide4128" />
    <sodipodi:guide
       position="3.0000011,2.9999962"
       orientation="0,16"
       id="guide4130" />
    <sodipodi:guide
       position="19.000001,2.9999962"
       orientation="-16,0"
       id="guide4132" />
    <sodipodi:guide
       position="6,19"
       orientation="0,-16"
       id="guide4134" />
  </sodipodi:namedview>
  <metadata
     id="metadata4360">
    <rdf:RDF>
      <cc:Work
         rdf:about="">
        <dc:format>image/svg+xml</dc:format>
        <dc:type
           rdf:resource="http://purl.org/dc/dcmitype/StillImage" />
        <dc:title></dc:title>
      </cc:Work>
    </rdf:RDF>
  </metadata>
  <g
     inkscape:label="Capa 1"
     inkscape:groupmode="layer"
     id="layer1"
     transform="translate(-544.57141,-742.93359)">
    <rect
       style="fill:#4d4d4d;fill-opacity:1;stroke:none"
       id="rect4035"
       width="0"
       height="10.999983"
       x="507.15402"
       y="747.55408" />
    <rect
       style="fill:#4d4d4d;fill-opacity:1;stroke:none"
       id="rect4035-5"
       width="0"
       height="10.999983"
       x="525.19482"
       y="745.50281" />
    <rect
       style="fill:#4d4d4d;fill-opacity:1;stroke:none"
       id="rect4035-8"
       width="0"
       height="10.999983"
       x="507.15402"
       y="747.55408" />
    <rect
       style="fill:#4d4d4d;fill-opacity:1;stroke:none"
       id="rect4035-59"
       width="0"
       height="10.999983"
       x="507.15402"
       y="747.55408" />
    <rect
       style="fill:#4d4d4d;fill-opacity:1;stroke:none"
       id="rect4035-6"
       width="0"
       height="10.999983"
       x="499.84589"
       y="742.71948" />
    <rect
       style="fill:#4d4d4d;fill-opacity:1;stroke:none"
       id="rect4035-5-1"
       width="0"
       height="10.999983"
       x="517.88666"
       y="740.66809" />
    <rect
       style="fill:#4d4d4d;fill-opacity:1;stroke:none"
       id="rect4035-8-3"
       width="0"
       height="10.999983"
       x="499.84589"
       y="742.71948" />
    <rect
       style="fill:#4d4d4d;fill-opacity:1;stroke:none"
       id="rect4035-59-4"
       width="0"
       height="10.999983"
       x="499.84589"
       y="742.71948" />
    <rect
       style="fill:#4d4d4d;fill-opacity:1;stroke:none"
       id="rect4035-1"
       width="0"
       height="10.999983"
       x="505.86105"
       y="746.93567" />
    <rect
       style="fill:#4d4d4d;fill-opacity:1;stroke:none"
       id="rect4035-5-0"
       width="0"
       height="10.999983"
       x="523.90186"
       y="744.8844" />
    <rect
       style="fill:#4d4d4d;fill-opacity:1;stroke:none"
       id="rect4035-8-1"
       width="0"
       height="10.999983"
       x="505.86105"
       y="746.93567" />
    <rect
       style="fill:#4d4d4d;fill-opacity:1;stroke:none"
       id="rect4035-59-1"
       width="0"
       height="10.999983"
       x="505.86105"
       y="746.93567" />
    <rect
       y="747.55408"
       x="507.15402"
       height="10.999983"
       width="0"
       id="rect4035-7"
       style="fill:#4d4d4d;fill-opacity:1;stroke:none" />
    <rect
       y="745.50281"
       x="525.19482"
       height="10.999983"
       width="0"
       id="rect4035-5-7"
       style="fill:#4d4d4d;fill-opacity:1;stroke:none" />
    <rect
       y="747.55408"
       x="507.15402"
       height="10.999983"
       width="0"
       id="rect4035-8-16"
       style="fill:#4d4d4d;fill-opacity:1;stroke:none" />
    <rect
       y="747.55408"
       x="507.15402"
       height="10.999983"
       width="0"
       id="rect4035-59-18"
       style="fill:#4d4d4d;fill-opacity:1;stroke:none" />
    <rect
       y="742.71948"
       x="499.84589"
       height="10.999983"
       width="0"
       id="rect4035-6-5"
       style="fill:#4d4d4d;fill-opacity:1;stroke:none" />
    <rect
       y="740.66809"
       x="517.88666"
       height="10.999983"
       width="0"
       id="rect4035-5-1-8"
       style="fill:#4d4d4d;fill-opacity:1;stroke:none" />
    <rect
       y="742.71948"
       x="499.84589"
       height="10.999983"
       width="0"
       id="rect4035-8-3-8"
       style="fill:#4d4d4d;fill-opacity:1;stroke:none" />
    <rect
       y="742.71948"
       x="499.84589"
       height="10.999983"
       width="0"
       id="rect4035-59-4-7"
       style="fill:#4d4d4d;fill-opacity:1;stroke:none" />
    <rect
       y="746.93567"
       x="505.86105"
       height="10.999983"
       width="0"
       id="rect4035-1-7"
       style="fill:#4d4d4d;fill-opacity:1;stroke:none" />
    <rect
       y="744.8844"
       x="523.90186"
       height="10.999983"
       width="0"
       id="rect4035-5-0-8"
       style="fill:#4d4d4d;fill-opacity:1;stroke:none" />
    <rect
       y="746.93567"
       x="505.86105"
       height="10.999983"
       width="0"
       id="rect4035-8-1-0"
       style="fill:#4d4d4d;fill-opacity:1;stroke:none" />
    <rect
       y="746.93567"
       x="505.86105"
       height="10.999983"
       width="0"
       id="rect4035-59-1-3"
       style="fill:#4d4d4d;fill-opacity:1;stroke:none" />
    <rect
       y="750.93359"
       x="504.62219"
       height="10.999983"
       width="0"
       id="rect4035-0"
       style="fill:#4d4d4d;fill-opacity:1;stroke:none" />
    <rect
       y="748.88232"
       x="522.66296"
       height="10.999983"
       width="0"
       id="rect4035-5-5"
       style="fill:#4d4d4d;fill-opacity:1;stroke:none" />
    <rect
       y="750.93359"
       x="504.62219"
       height="10.999983"
       width="0"
       id="rect4035-8-6"
       style="fill:#4d4d4d;fill-opacity:1;stroke:none" />
    <rect
       y="750.93359"
       x="504.62219"
       height="10.999983"
       width="0"
       id="rect4035-59-11"
       style="fill:#4d4d4d;fill-opacity:1;stroke:none" />
    <rect
       y="747.29968"
       x="488.63409"
       height="10.999983"
       width="0"
       id="rect4035-9"
       style="fill:#4d4d4d;fill-opacity:1;stroke:none" />
    <rect
       y="745.24841"
       x="506.67487"
       height="10.999983"
       width="0"
       id="rect4035-5-8"
       style="fill:#4d4d4d;fill-opacity:1;stroke:none" />
    <rect
       y="747.29968"
       x="488.63409"
       height="10.999983"
       width="0"
       id="rect4035-8-0"
       style="fill:#4d4d4d;fill-opacity:1;stroke:none" />
    <rect
       y="747.29968"
       x="488.63409"
       height="10.999983"
       width="0"
       id="rect4035-59-1-8"
       style="fill:#4d4d4d;fill-opacity:1;stroke:none" />
    <rect
       style="fill:#4d4d4d;fill-opacity:1;stroke:none"
       id="rect4035-3"
       width="0"
       height="10.999983"
       x="507.15402"
       y="747.55408" />
    <rect
       style="fill:#4d4d4d;fill-opacity:1;stroke:none"
       id="rect4035-5-2"
       width="0"
       height="10.999983"
       x="525.19482"
       y="745.50281" />
    <rect
       style="fill:#4d4d4d;fill-opacity:1;stroke:none"
       id="rect4035-8-7"
       width="0"
       height="10.999983"
       x="507.15402"
       y="747.55408" />
    <rect
       style="fill:#4d4d4d;fill-opacity:1;stroke:none"
       id="rect4035-59-43"
       width="0"
       height="10.999983"
       x="507.15402"
       y="747.55408" />
    <rect
       style="fill:#4d4d4d;fill-opacity:1;stroke:none"
       id="rect4035-6-2"
       width="0"
       height="10.999983"
       x="499.84589"
       y="742.71948" />
    <rect
       style="fill:#4d4d4d;fill-opacity:1;stroke:none"
       id="rect4035-5-1-6"
       width="0"
       height="10.999983"
       x="517.88666"
       y="740.66809" />
    <rect
       style="fill:#4d4d4d;fill-opacity:1;stroke:none"
       id="rect4035-8-3-4"
       width="0"
       height="10.999983"
       x="499.84589"
       y="742.71948" />
    <rect
       style="fill:#4d4d4d;fill-opacity:1;stroke:none"
       id="rect4035-59-4-8"
       width="0"
       height="10.999983"
       x="499.84589"
       y="742.71948" />
    <rect
       style="fill:#4d4d4d;fill-opacity:1;stroke:none"
       id="rect4035-1-8"
       width="0"
       height="10.999983"
       x="505.86105"
       y="746.93567" />
    <rect
       style="fill:#4d4d4d;fill-opacity:1;stroke:none"
       id="rect4035-5-0-0"
       width="0"
       height="10.999983"
       x="523.90186"
       y="744.8844" />
    <rect
       style="fill:#4d4d4d;fill-opacity:1;stroke:none"
       id="rect4035-8-1-3"
       width="0"
       height="10.999983"
       x="505.86105"
       y="746.93567" />
    <rect
       style="fill:#4d4d4d;fill-opacity:1;stroke:none"
       id="rect4035-59-1-1"
       width="0"
       height="10.999983"
       x="505.86105"
       y="746.93567" />
    <g
       transform="translate(544.57141,-287.42861)"
       id="layer1-6"
       inkscape:label="Capa 1"
       style="fill:#1d99f3;fill-opacity:1">
      <rect
         y="1034.9827"
         x="-37.468155"
         height="10.999983"
         width="0"
         id="rect4035-73"
         style="fill:#1d99f3;fill-opacity:1;stroke:none" />
      <rect
         y="1032.9314"
         x="-19.427383"
         height="10.999983"
         width="0"
         id="rect4035-5-02"
         style="fill:#1d99f3;fill-opacity:1;stroke:none" />
      <rect
         y="1034.9827"
         x="-37.468155"
         height="10.999983"
         width="0"
         id="rect4035-8-19"
         style="fill:#1d99f3;fill-opacity:1;stroke:none" />
      <rect
         y="1034.9827"
         x="-37.468155"
         height="10.999983"
         width="0"
         id="rect4035-59-2"
         style="fill:#1d99f3;fill-opacity:1;stroke:none" />
      <rect
         y="1030.1481"
         x="-44.776306"
         height="10.999983"
         width="0"
         id="rect4035-6-1"
         style="fill:#1d99f3;fill-opacity:1;stroke:none" />
      <rect
         y="1028.0967"
         x="-26.735535"
         height="10.999983"
         width="0"
         id="rect4035-5-1-7"
         style="fill:#1d99f3;fill-opacity:1;stroke:none" />
      <rect
         y="1030.1481"
         x="-44.776306"
         height="10.999983"
         width="0"
         id="rect4035-8-3-3"
         style="fill:#1d99f3;fill-opacity:1;stroke:none" />
      <rect
         y="1030.1481"
         x="-44.776306"
         height="10.999983"
         width="0"
         id="rect4035-59-4-86"
         style="fill:#1d99f3;fill-opacity:1;stroke:none" />
      <rect
         y="1034.3643"
         x="-38.761135"
         height="10.999983"
         width="0"
         id="rect4035-1-9"
         style="fill:#1d99f3;fill-opacity:1;stroke:none" />
      <rect
         y="1032.313"
         x="-20.720364"
         height="10.999983"
         width="0"
         id="rect4035-5-0-1"
         style="fill:#1d99f3;fill-opacity:1;stroke:none" />
      <rect
         y="1034.3643"
         x="-38.761135"
         height="10.999983"
         width="0"
         id="rect4035-8-1-31"
         style="fill:#1d99f3;fill-opacity:1;stroke:none" />
      <rect
         y="1034.3643"
         x="-38.761135"
         height="10.999983"
         width="0"
         id="rect4035-59-1-4"
         style="fill:#1d99f3;fill-opacity:1;stroke:none" />
      <rect
         y="1038.3622"
         x="-39.999996"
         height="10.999983"
         width="0"
         id="rect4035-0-7"
         style="fill:#1d99f3;fill-opacity:1;stroke:none" />
      <rect
         y="1036.3109"
         x="-21.959225"
         height="10.999983"
         width="0"
         id="rect4035-5-5-3"
         style="fill:#1d99f3;fill-opacity:1;stroke:none" />
      <rect
         y="1038.3622"
         x="-39.999996"
         height="10.999983"
         width="0"
         id="rect4035-8-6-9"
         style="fill:#1d99f3;fill-opacity:1;stroke:none" />
      <rect
         y="1038.3622"
         x="-39.999996"
         height="10.999983"
         width="0"
         id="rect4035-59-11-8"
         style="fill:#1d99f3;fill-opacity:1;stroke:none" />
      <rect
         y="1034.7283"
         x="-55.988094"
         height="10.999983"
         width="0"
         id="rect4035-9-7"
         style="fill:#1d99f3;fill-opacity:1;stroke:none" />
      <rect
         y="1032.677"
         x="-37.947323"
         height="10.999983"
         width="0"
         id="rect4035-5-8-0"
         style="fill:#1d99f3;fill-opacity:1;stroke:none" />
      <rect
         y="1034.7283"
         x="-55.988094"
         height="10.999983"
         width="0"
         id="rect4035-8-0-9"
         style="fill:#1d99f3;fill-opacity:1;stroke:none" />
      <rect
         y="1034.7283"
         x="-55.988094"
         height="10.999983"
         width="0"
         id="rect4035-59-1-8-7"
         style="fill:#1d99f3;fill-opacity:1;stroke:none" />
      <path
         id="path4059"
         transform="translate(-1,1029.3622)"
         d="M 4,4 4,20 20,20 20,4 4,4 Z M 19,5 19,19 5,19 8.46875,15.53125 C 7.563928,14.626428 7,13.380712 7,12 7,9.2385763 9.2385763,7 12,7 c 1.380712,0 2.626428,0.563928 3.53125,1.46875 L 19,5 Z m -3.46875,3.46875 -7.0625,7.0625 C 9.373572,16.436072 10.619288,17 12,17 c 2.761424,0 5,-2.238576 5,-5 0,-1.380712 -0.563928,-2.626428 -1.46875,-3.53125 z"
         style="fill:#1d99f3;fill-opacity:1;stroke:none;stroke-width:1px;stroke-linecap:butt;stroke-linejoin:miter;stroke-opacity:1"
         inkscape:connector-curvature="0" />
    </g>
  </g>
</svg>

<svg xmlns="http://www.w3.org/2000/svg" viewBox="0 0 22 22"><defs><clipPath><path fill="#f2f2f2" d="m7 1023.36h1v1h-1z"/></clipPath></defs><path transform="translate(-1-1)" d="m4 4v16h16v-16h-16m15 1v14h-14l3.469-3.469c-.905-.905-1.469-2.151-1.469-3.531 0-2.761 2.239-5 5-5 1.381 0 2.626.564 3.531 1.469l3.469-3.469m-3.469 3.469l-7.06 7.06c.905.905 2.151 1.469 3.531 1.469 2.761 0 5-2.239 5-5 0-1.381-.564-2.626-1.469-3.531z" fill="#1d99f3"/></svg>
